outputs/icons/social/very_satisfied_sharp.svg

<svg xmlns="http://www.w3.org/2000/svg" width="1200" height="1200" fill="none"><g clip-path="url(#a)"><path fill="#000" d="m444 497 53 53 53-53-106-106-106 106 53 53zm156 378c116.5 0 215.5-73 255.5-175h-511c40 102 139 175 255.5 175m50-378 53 53 53-53 53 53 53-53-106-106zm-50.5-397C323.5 100 100 323.5 100 600s223.5 500 499.5 500S1100 876.5 1100 600 876 100 599.5 100m.5 900c-221 0-400-179-400-400s179-400 400-400 400 179 400 400-179 400-400 400"/></g><defs><clipPath id="a"><path fill="#fff" d="M0 0h1200v1200H0z"/></clipPath></defs></svg>

<svg width="1200" height="1200" viewBox="0 0 1200 1200" fill="none" xmlns="http://www.w3.org/2000/svg"><g clip-path="url(#clip0_133_574)"><path d="M444 497L497 550L550 497L444 391L338 497L391 550L444 497ZM600 875C716.5 875 815.5 802 855.5 700H344.5C384.5 802 483.5 875 600 875ZM650 497L703 550L756 497L809 550L862 497L756 391L650 497ZM599.5 100C323.5 100 100 323.5 100 600C100 876.5 323.5 1100 599.5 1100C875.5 1100 1100 876.5 1100 600C1100 323.5 876 100 599.5 100ZM600 1000C379 1000 200 821 200 600C200 379 379 200 600 200C821 200 1000 379 1000 600C1000 821 821 1000 600 1000Z" fill="black"/></g><defs><clipPath id="clip0_133_574"><path width="24" fill="white" d="M0 0H1200V1200H0V0z"/></clipPath></defs></svg>
